!! 00047] TT[KA
!!!OTL: Wo shi rikeze ren
!!!ARE: Tibet, Rikeze
!! Ethnic Group: Zang
!! II, 308
!!!SCT: C1175
!!!YEM: Copyright 1995, estate of Helmut Schaffrath.
**kern
*ICvox
*Ivox
*M2/4
*k[b-e-a-]
*E-:
{8ff
8ee-
8cc
8ee-
=1
4b-
4b-}
=2
{8cc
8ee-
8cc
8b-
=3
4g
4g}
=4
{8cc
8b-
8cc
16cc
16b-
=5
4g
8.b-
16g}
=6
{8f
8e-
16c
16c
8c
=7
4e-
8e-
8r}
=8
{16e-
16f
16e-
16f
8e-
8g
=9
16e-
16f
16e-
16f
8e-
8g}
=10
{16e-
16f
16e-
16f
8e-
8c
=11
16e-
16f
16e-
16f
8e-
8g}
=12
{16e-
16f
16e-
16f
8e-
8g
=13
16e-
16f
16e-
16f
8e-
8r}
=14
{8c
8e-
4g
=15
8b-
8cc
4b-}
=16
{8f
8b-
8g
8f
=17
8e-
8c
4e-}
==
!!!AGN: Wuge, Duixie
!! Vor- und Nachspiel weggelassen
!!!ONB: ESAC (Essen Associative Code) Database: CHINA_081
!!!AMT: simple duple
!!!AIN: vox
!!!EED: Helmut Schaffrath
!!!EEV: 1.0
*-
